material/.icons/material/emoticon-dead-outline.svg

<svg xmlns="http://www.w3.org/2000/svg" viewBox="0 0 24 24"><path d="M12 2C6.47 2 2 6.47 2 12s4.47 10 10 10a10 10 0 0010-10c0-5.53-4.5-10-10-10m0 18a8 8 0 01-8-8 8 8 0 018-8 8 8 0 018 8 8 8 0 01-8 8m4.18-12.24l-1.06 1.06-1.06-1.06L13 8.82l1.06 1.06L13 10.94 14.06 12l1.06-1.06L16.18 12l1.06-1.06-1.06-1.06 1.06-1.06-1.06-1.06M7.82 12l1.06-1.06L9.94 12 11 10.94 9.94 9.88 11 8.82 9.94 7.76 8.88 8.82 7.82 7.76 6.76 8.82l1.06 1.06-1.06 1.06L7.82 12M12 14c-2.33 0-4.31 1.46-5.11 3.5h10.22c-.8-2.04-2.78-3.5-5.11-3.5z"/></svg>

<?xml version="1.0" encoding="UTF-8"?><!DOCTYPE svg PUBLIC "-//W3C//DTD SVG 1.1//EN" "http://www.w3.org/Graphics/SVG/1.1/DTD/svg11.dtd"><svg xmlns="http://www.w3.org/2000/svg" xmlns:xlink="http://www.w3.org/1999/xlink" version="1.1" id="mdi-emoticon-dead-outline" width="24" height="24" viewBox="0 0 24 24"><path d="M12,2C6.47,2 2,6.47 2,12C2,17.53 6.47,22 12,22A10,10 0 0,0 22,12C22,6.47 17.5,2 12,2M12,20A8,8 0 0,1 4,12A8,8 0 0,1 12,4A8,8 0 0,1 20,12A8,8 0 0,1 12,20M16.18,7.76L15.12,8.82L14.06,7.76L13,8.82L14.06,9.88L13,10.94L14.06,12L15.12,10.94L16.18,12L17.24,10.94L16.18,9.88L17.24,8.82L16.18,7.76M7.82,12L8.88,10.94L9.94,12L11,10.94L9.94,9.88L11,8.82L9.94,7.76L8.88,8.82L7.82,7.76L6.76,8.82L7.82,9.88L6.76,10.94L7.82,12M12,14C9.67,14 7.69,15.46 6.89,17.5H17.11C16.31,15.46 14.33,14 12,14Z" /></svg>
